icons/1_Primary/XDA Developers.svg

<svg xmlns="http://www.w3.org/2000/svg" width="1024" height="1024" fill="none">
   <g clip-path="url(#a)">
      <path fill="#F8C18C" d="M512 1024c282.77 0 512-229.23 512-512S794.77 0 512 0 0 229.23 0 512s229.23 512 512 512Z"/>
      <path fill="#fff" d="M276.2 466.8v-24.5h63v141.2h-63v-24.3h36.9v-92.4h-36.9Zm-29.5-.2v-24.3h-63v141.2h37.5l25.5 51.5v-76.2l-36.9.1v-92.4h36.9v.1Zm272.1-17.8 1-1.4 5.4-6.1H494l-44.7 53-44.8-53-31.5.2 5.6 6 55 65.4-55 65.5-5.6 6.2h31.5l44.8-53 44.7 53 31.3-.2-5.3-6-55.3-65.4 54.1-64.2Zm136-7.4H538.4v143.3h116.4c7.1.1 14-2.7 19-7.8 5.2-5 8-11.9 7.9-19v-89.6c.1-7.2-2.7-14.1-7.9-19-5-5.2-11.9-8-19-7.9Zm2.8 116.5c0 .8-.3 1.5-.8 2.1-.5.6-1.3.9-2.1.8h-89.6c-.8 0-1.5-.3-2.1-.8-.5-.6-.8-1.3-.8-2.1v-89.6c0-.8.2-1.5.8-2.1.5-.6 1.3-.9 2.1-.9h89.6c.8 0 1.5.3 2.1.9.6.5.9 1.3.8 2.1v89.6Zm174.9-108.6c-5-5.2-11.9-8-19-7.9h-89.7c-7.2-.1-14 2.8-19 7.9-5.1 5-7.9 11.9-7.8 19v116.4h24v-49h95.4v49h23.9V468.3c.2-7.1-2.7-14-7.8-19Zm-16.1 62.3H721v-43.3c-.1-.8.3-1.6.9-2.1.5-.6 1.2-.9 1.9-.9h89.7c.7 0 1.5.3 1.9.9.6.5 1 1.3.9 2.1v43.3h.1Z"/>
   </g>
   <defs>
      <clipPath id="a">
         <path fill="#fff" d="M0 0h1024v1024H0z"/>
      </clipPath>
   </defs>
</svg>

<svg width="1024" height="1024" viewBox="0 0 1024 1024" fill="none" xmlns="http://www.w3.org/2000/svg">
<g clip-path="url(#clip0_2_3972)">
<path d="M512 1024C794.77 1024 1024 794.77 1024 512C1024 229.23 794.77 0 512 0C229.23 0 0 229.23 0 512C0 794.77 229.23 1024 512 1024Z" fill="#F8C18C"/>
<path d="M276.2 466.8V442.3H339.2V583.5H276.2V559.2H313.1V466.8H276.2ZM246.7 466.6V442.3H183.7V583.5H221.2L246.7 635V558.8L209.8 558.9V466.5H246.7V466.6ZM518.8 448.8L519.8 447.4L525.2 441.3H494L449.3 494.3L404.5 441.3L373 441.5L378.6 447.5L433.6 512.9L378.6 578.4L373 584.6H404.5L449.3 531.6L494 584.6L525.3 584.4L520 578.4L464.7 513L518.8 448.8ZM654.8 441.4H538.4V584.7H654.8C661.9 584.8 668.8 582 673.8 576.9C679 571.9 681.8 565 681.7 557.9V468.3C681.8 461.1 679 454.2 673.8 449.3C668.8 444.1 661.9 441.3 654.8 441.4ZM657.6 557.9C657.6 558.7 657.3 559.4 656.8 560C656.3 560.6 655.5 560.9 654.7 560.8H565.1C564.3 560.8 563.6 560.5 563 560C562.5 559.4 562.2 558.7 562.2 557.9V468.3C562.2 467.5 562.4 466.8 563 466.2C563.5 465.6 564.3 465.3 565.1 465.3H654.7C655.5 465.3 656.2 465.6 656.8 466.2C657.4 466.7 657.7 467.5 657.6 468.3V557.9ZM832.5 449.3C827.5 444.1 820.6 441.3 813.5 441.4H723.8C716.6 441.3 709.8 444.2 704.8 449.3C699.7 454.3 696.9 461.2 697 468.3V584.7H721V535.7H816.4V584.7H840.3V468.3C840.5 461.2 837.6 454.3 832.5 449.3ZM816.4 511.6H721V468.3C720.9 467.5 721.3 466.7 721.9 466.2C722.4 465.6 723.1 465.3 723.8 465.3H813.5C814.2 465.3 815 465.6 815.4 466.2C816 466.7 816.4 467.5 816.3 468.3V511.6H816.4Z" fill="white"/>
</g>
<defs>
<clipPath id="clip0_2_3972">
<rect width="1024" height="1024" fill="white"/>
</clipPath>
</defs>
</svg>
